X: 19715
T: Jenny Lind, The
R: polka
M: 2/4
K: Dmajor
|:A/G/|FA GB|Af f/e/f|Ge e/d/e|Fd d/c/B/A/|
FA GB|Af f/e/f|ge e/g/f/e/|df d:|
K:G
|:e/f/|gf e/f/g/e/|dB B/A/B|cA A/G/A|BG Ge/f/|
gf e/f/g/e/|dB B/A/B|cA A/c/B/A/ GB G:|

